assets/Butter/Flat/butter_flat.svg

<svg width="32" height="32" viewBox="0 0 32 32" fill="none" xmlns="http://www.w3.org/2000/svg">
<path d="M2 22.93V24.15C2 24.36 2.10999 24.57 2.32999 24.68L12.48 29.67C13.1 29.98 13.84 29.98 14.46 29.67L29.66 22.27C29.88 22.16 29.99 21.95 29.99 21.74V20.52L2 22.93Z" fill="#D3D3D3"/>
<path d="M18.26 14.67L2.33 22.43C1.89 22.65 1.89 23.27 2.33 23.49L12.48 28.48C13.1 28.79 13.84 28.79 14.46 28.48L29.66 21.08C30.1 20.86 30.1 20.24 29.66 20.02L18.78 14.67C18.62 14.59 18.42 14.59 18.26 14.67Z" fill="#F4F4F4"/>
<path d="M18.9101 12.1299C18.5601 11.9599 18.1601 11.9599 17.8201 12.1299L9.7801 15.9799C9.5201 16.1099 9.3501 16.3799 9.3501 16.6699C11.6319 19.8394 13.9314 21.9844 16.969 24.5503L17.0701 24.5999C17.2801 24.6999 17.5301 24.6999 17.7501 24.5999L17.8788 24.5382C21.875 20.5938 22.5 20 26.4201 16.2999C26.4201 16.0099 26.2501 15.7399 25.9901 15.6099L18.9101 12.1299Z" fill="#FCD53F"/>
<path d="M9.3501 20.4235V16.6535C9.3501 16.4535 9.5601 16.3135 9.7501 16.4035L17.1001 20.0235C17.2901 20.1135 17.4101 20.3135 17.4101 20.5235V24.2535C17.4101 24.4935 17.1601 24.6535 16.9401 24.5435L9.7101 20.9935C9.4901 20.8835 9.3501 20.6735 9.3501 20.4235Z" fill="#FFF478"/>
<path d="M9.3501 20.4235V16.6535C9.3501 16.4535 9.5601 16.3135 9.7501 16.4035L17.1001 20.0235C17.2901 20.1135 17.4101 20.3135 17.4101 20.5235V24.2535C17.4101 24.4935 17.1601 24.6535 16.9401 24.5435L9.7101 20.9935C9.4901 20.8835 9.3501 20.6735 9.3501 20.4235Z" fill="#FFF478"/>
<path d="M8.3999 17.31C8.0499 17.14 7.6499 17.14 7.3099 17.31L6.3299 17.78C6.0699 17.91 5.8999 18.17 5.8999 18.47C8.11384 21.6373 11.0808 23.3423 13.5199 26.3509L13.6199 26.4C13.8299 26.5 14.0799 26.5 14.2999 26.4L14.4333 26.3354C14.6839 24.6251 15.3385 23.1467 15.9099 21.48C15.9099 21.19 15.7399 20.92 15.4799 20.79L8.3999 17.31Z" fill="#FCD53F"/>
<path d="M5.8999 22.2234V18.4534C5.8999 18.2534 6.1099 18.1134 6.2999 18.2034L13.6599 21.8234C13.8499 21.9134 13.9699 22.1134 13.9699 22.3234V26.0534C13.9699 26.2934 13.7199 26.4534 13.4999 26.3434L6.2599 22.7834C6.0399 22.6834 5.8999 22.4634 5.8999 22.2234Z" fill="#FFF478"/>
<path d="M26.4299 16.2835V20.0535C26.4299 20.2935 26.2899 20.5135 26.0799 20.6135L17.8899 24.5435C17.6699 24.6535 17.4199 24.4935 17.4199 24.2535V20.5235C17.4199 20.3135 17.5399 20.1135 17.7299 20.0235L26.0299 16.0335C26.2199 15.9435 26.4299 16.0835 26.4299 16.2835Z" fill="#F9C23C"/>
<path d="M15.91 21.4734V25.2434C15.91 25.4834 15.78 25.7034 15.56 25.7934L14.43 26.3434C14.21 26.4534 13.96 26.2934 13.96 26.0534V22.3234C13.96 22.1134 14.08 21.9134 14.27 21.8234L15.51 21.2234C15.7 21.1334 15.91 21.2734 15.91 21.4734Z" fill="#F9C23C"/>
</svg>

<svg xmlns="http://www.w3.org/2000/svg" width="32" height="32" fill="none"><path fill="#D3D3D3" d="M2 22.93v1.22c0 .21.11.42.33.53l10.15 4.99c.62.31 1.36.31 1.98 0l15.2-7.4c.22-.11.33-.32.33-.53v-1.22L2 22.93Z"/><path fill="#F4F4F4" d="M18.26 14.67 2.33 22.43a.59.59 0 0 0 0 1.06l10.15 4.99c.62.31 1.36.31 1.98 0l15.2-7.4a.59.59 0 0 0 0-1.06l-10.88-5.35a.593.593 0 0 0-.52 0Z"/><path fill="#FCD53F" d="M18.91 12.13c-.35-.17-.75-.17-1.09 0l-8.04 3.85c-.26.13-.43.4-.43.69 2.282 3.17 4.581 5.314 7.619 7.88l.101.05c.21.1.46.1.68 0l.129-.062C21.875 20.594 22.5 20 26.42 16.3c0-.29-.17-.56-.43-.69l-7.08-3.48Z"/><path fill="#FFF478" d="M9.35 20.424v-3.77c0-.2.21-.34.4-.25l7.35 3.62c.19.09.31.29.31.5v3.73c0 .24-.25.4-.47.29l-7.23-3.55a.63.63 0 0 1-.36-.57Z"/><path fill="#FFF478" d="M9.35 20.424v-3.77c0-.2.21-.34.4-.25l7.35 3.62c.19.09.31.29.31.5v3.73c0 .24-.25.4-.47.29l-7.23-3.55a.63.63 0 0 1-.36-.57Z"/><path fill="#FCD53F" d="M8.4 17.31c-.35-.17-.75-.17-1.09 0l-.98.47c-.26.13-.43.39-.43.69 2.214 3.167 5.18 4.872 7.62 7.88l.1.05c.21.1.46.1.68 0l.133-.065c.25-1.71.905-3.188 1.477-4.855 0-.29-.17-.56-.43-.69L8.4 17.31Z"/><path fill="#FFF478" d="M5.9 22.223v-3.77c0-.2.21-.34.4-.25l7.36 3.62c.19.09.31.29.31.5v3.73c0 .24-.25.4-.47.29l-7.24-3.56a.615.615 0 0 1-.36-.56Z"/><path fill="#F9C23C" d="M26.43 16.284v3.77c0 .24-.14.46-.35.56l-8.19 3.93a.323.323 0 0 1-.47-.29v-3.73c0-.21.12-.41.31-.5l8.3-3.99c.19-.09.4.05.4.25ZM15.91 21.473v3.77c0 .24-.13.46-.35.55l-1.13.55a.323.323 0 0 1-.47-.29v-3.73c0-.21.12-.41.31-.5l1.24-.6c.19-.09.4.05.4.25Z"/></svg>
